X: 35498
T: Rubens
R: reel
M: 4/4
K: Gminor
|:DGGF GABG|BGGF GABG|AFF=E FGAB|c2BA cBAG|
DGGF GABG|BGGF GABc|c2BA cBAc|DGGF G4:|
|:FBBA Bcde|fB=eB dBcA|FAAG ABcd|decd BcAB|
DGGF G3A|FAAG ABcA|c2BA cBAG|DGGF G4:|

